X:1
T:Litchfield, CM
T:Litchfield, CM
T:Lowell Mason, 1859
T:Public Domain Courtesy of the Cyber Hymnal™
C:Lowell Mason, 1859
Z:Public Domain
Z:Courtesy of the Cyber Hymnal™
%%score ( 1 2 ) ( 3 4 )
L:1/8
Q:1/4=105
M:4/4
K:Eb
V:1 treble 
V:2 treble 
V:3 bass 
V:4 bass 
V:1
 (E>F) | [EG]2 (G>A) [EB]2 [EG]2 | [EF]2 [DA]2 [EG]2 ([DB]>[Ec]) | [Fd]2 [Ec]2 [DB]2 [C=A]2 | %4
 [DB]4 z2 B2 | [Ge]2 (G>A) [_EB]2 (F[=EG]) | [FA]2 [EG]2 [DF]2 (G>A) | [EB]2 [Ec]2 (BG) [DF]2 | %8
 E4 z2 |] %9
V:2
 E2 | x2 E2 x4 | x8 | x8 | x6 (E>F) | x2 =E2 x/ F x5/2 | x6 E2 | x4 E2 x2 | E4 x2 |] %9
V:3
 (G,>A,) | [E,B,]2 B,2 [G,B,]2 [E,B,]2 | [A,,C]2 [B,,B,]2 [E,B,]2 [B,,B,]2 | %3
 [B,,B,]2 [E,G,]2 F,2 F,2 | [B,,F,]4 z2 (G,>A,) | [E,B,]2 B,2 [G,B,]2 ([A,C][G,B,]) | %6
 C2 [E,B,]2 [B,,B,]2 (E,>F,) | [E,G,]2 [A,,A,]2 (G,B,) [B,,A,]2 | [E,G,]4 z2 |] %9
V:4
 E,2 | x2 (E,>F,) x4 | x8 | x4 F,2 F,2 | x6 E,2 | x2 (E,>F,) x4 | (F,D,) x3 E,2 x | x4 B,,2 x2 | %8
 x6 |] %9

